X:180
T: ES WOLLT EIN MAEGDLEIN SEHR FRUEH AUFSTEHN
N: E0096A
O: Europa, Mitteleuropa, Deutschland
R: erzaehlendes Volks - Lied, Sage, Liebe, Leid, Tod
M: 3/4
L: 1/16
K: F
C2F2A2 | G2AGF2AccBBA | G4z2
cBA2c2 | cBBAB2BAG2B2 | BAAGA2
cBA2G2 | F4z2
cBA2c2 | cBBAB2BAG2B2 | BAAGA2
cBA2G2 | F4z2

@@@ Tune index: 3830
